X: 591
T: Hughie Shorty’s Reel
B: good tune book
B: tunes
M:4/4
R: reel
Q: 1/4=100
K:Gmajor
V:1 
"G"G2BG "D"cAFA|"G"GABd g2fg|"C"ecAc "G"dBGB|"Am"cAAB "D"AFD2|! "G"DGBG "D"cAFA|"G"GABd g2fg|"C"ecAc "G"dBGB|"D"cAFA "G"G4:|! "G"g2dg bgag|"C"ec c/c/c "Am"efge|"G"dB B/B/B "Em"dBGB|"C"cAAB "D"AFD2|! "G"g2dg bgag|"C"ec c/c/c efge|"G"dB B/B/B "C"dBGB|"D"cAGF "G"G4|! "G"g2dg bgag|"C"ec c/c/c "Am"efge|"G"dB B/B/B "Em"dBGB|"C"cAAB "D"AFD2|! "C"G,CEC "G"B,DdB|"D"cdef "G"g2fg|"C"ecAc "G"dBGB|"D"cAFA "G"G4||
% abcbook-tune_id 63dce44ac795e5dd5935b87f
% abcbook-tune_composer_id 
% abcbook-link-0 https://www.youtube.com/watch?v=vuR20ytiQ1E
% abcbook-link-title-0 Hughie Shorty&#39;s Reel, Lexi McCaskell, Gravel Walk
% abcbook-link-end-at-0 141
% abcbook-boost 0
% abcbook-difficulty 0
% abcbook-tags good tune book
% abcbook-tablature 
% abcbook-transpose 
% abcbook-tuning 
% abcbook-lastupdated 1675431380195
% abcbook-soundfonts 
% abcbook-repeats 1


